X: 1
T: Highland Harry
T: The Highlander's Farewell to Ireland
B: Neil Stewart Collection p.27 (1761)
B: Gillespie Manuscript of Perth (1768)
B: Gow
B: Skye
R: strathspey
Z: 2006 John Chambers <jc:trillian.mit.edu>
M: C
L: 1/16
K: Ador
|: "Am"A4 A3B AA3 A3B | "G"g3e d3B G4 G3g \
|  "Am"e3d efg2 "D"a4 ag3 |1 "G"efg2 dB3 "Am"A4 Aa3 :|2 "G"efg2 dB3 "Am"A4 A2z2 :|
|: "Am"a4 a3e aa3 a3e | "G"g3a gfe2 d3B G3g \
|  "Am"e3d efg2 "D"a4 a3g | "G"efg2 d3B "Am"A4 A2z2 :|
